X: 10
T: Repeal The Union
R: jig
M: 6/8
L: 1/8
K: Gmaj
|: "G" GAG GBd      | "C" edB "D" deg  | "Em" bge "D" edB  | "G" dBG "Am" AGE  |
   "G" GAG GBd      | "C" edB "D" deg  | "Em" bge "G" deg  |1 "D" agf "G" g3  :|2 "D" agf "G" g2b ||
|: "C" c'2b "D" a2b | "G" gag "Em" ege | "G" d2e      g2e  | dBG "Am" AGE      |
   "G" GAG GBd      | "C" edB "D" deg  | "Em" bge "G" deg  |1 "D" agf "G" g2b :|2 "D" agf "G" g3 ||
|: "G" GAG B2c      | "D" ded "G" B2d  | "C" cBc "D" A2c   | "G" BAB G2 D      |
   "G" GAG B2c      | "D" ded "G" B2d  | "C" cBc "D" A2F   | "G" GAG G3       :|

